bundles/org.openhab.ui.habpanel/web/assets/icons/smarthome-set/doorbell.svg

<?xml version="1.0" encoding="UTF-8" standalone="no"?>
<svg width="32px" height="32px" viewBox="0 0 32 32" version="1.1" xmlns="http://www.w3.org/2000/svg" xmlns:xlink="http://www.w3.org/1999/xlink" xmlns:sketch="http://www.bohemiancoding.com/sketch/ns">
    <!-- Generator: Sketch 3.3.2 (12043) - http://www.bohemiancoding.com/sketch -->
    <title>doorbell</title>
    <desc>Created with Sketch.</desc>
    <defs></defs>
    <g id="flatten" stroke="none" stroke-width="1" fill="none" fill-rule="evenodd" sketch:type="MSPage">
        <g id="z-copy" sketch:type="MSArtboardGroup" transform="translate(-68.000000, -100.000000)" fill="#000000">
            <g id="doorbell" sketch:type="MSLayerGroup" transform="translate(68.000000, 100.000000)">
                <path d="M4,4.0042577 C4,1.79276724 5.78429328,0 7.99005301,0 L24.009947,0 C26.2135924,0 28,1.78902751 28,4.0042577 L28,27.9957423 C28,30.2072328 26.2157067,32 24.009947,32 L7.99005301,32 C5.78640758,32 4,30.2109725 4,27.9957423 L4,4.0042577 Z M6,4.0042577 L6,27.9957423 C6,29.1064114 6.89099346,30 7.99005301,30 L24.009947,30 C25.1086483,30 26,29.1051475 26,27.9957423 L26,4.0042577 C26,2.89358858 25.1090065,2 24.009947,2 L7.99005301,2 C6.89135174,2 6,2.89485251 6,4.0042577 Z M16,17 C12.6862915,17 10,14.3137085 10,11 C10,7.6862915 12.6862915,5 16,5 C19.3137085,5 22,7.6862915 22,11 C22,14.3137085 19.3137085,17 16,17 Z M16,16 C18.7614237,16 21,13.7614237 21,11 C21,8.23857625 18.7614237,6 16,6 C13.2385763,6 11,8.23857625 11,11 C11,13.7614237 13.2385763,16 16,16 Z M13,20.5 C13,20.2238576 13.2278805,20 13.4910052,20 L18.5089948,20 C18.7801695,20 19,20.2319336 19,20.5 C19,20.7761424 18.7721195,21 18.5089948,21 L13.4910052,21 C13.2198305,21 13,20.7680664 13,20.5 Z M11,22.5 C11,22.2238576 11.2276528,22 11.5096495,22 L20.4903505,22 C20.7718221,22 21,22.2319336 21,22.5 C21,22.7761424 20.7723472,23 20.4903505,23 L11.5096495,23 C11.2281779,23 11,22.7680664 11,22.5 Z M11,24.5 C11,24.2238576 11.2276528,24 11.5096495,24 L20.4903505,24 C20.7718221,24 21,24.2319336 21,24.5 C21,24.7761424 20.7723472,25 20.4903505,25 L11.5096495,25 C11.2281779,25 11,24.7680664 11,24.5 Z M13,26.5 C13,26.2238576 13.2278805,26 13.4910052,26 L18.5089948,26 C18.7801695,26 19,26.2319336 19,26.5 C19,26.7761424 18.7721195,27 18.5089948,27 L13.4910052,27 C13.2198305,27 13,26.7680664 13,26.5 Z M13,11 C13,12 13.9999999,11.9999999 13.9999999,11 C14,10.0000001 15,9 16,9 C17,9 17,7.99999999 16,8 C14.5,7.99999999 13,9.5 13,11 Z" sketch:type="MSShapeGroup"></path>
            </g>
        </g>
    </g>
</svg>

<svg width="32" height="32" xmlns="http://www.w3.org/2000/svg"><path d="M4 4.004A3.996 3.996 0 0 1 7.99 0h16.02A3.995 3.995 0 0 1 28 4.004v23.992A3.996 3.996 0 0 1 24.01 32H7.99A3.995 3.995 0 0 1 4 27.996V4.004Zm2 0v23.992C6 29.106 6.891 30 7.99 30h16.02c1.099 0 1.99-.895 1.99-2.004V4.004C26 2.894 25.109 2 24.01 2H7.99C6.891 2 6 2.895 6 4.004ZM16 17a6 6 0 1 1 0-12 6 6 0 0 1 0 12Zm0-1a5 5 0 1 0 0-10 5 5 0 0 0 0 10Zm-3 4.5a.5.5 0 0 1 .491-.5h5.018a.5.5 0 0 1 0 1h-5.018a.5.5 0 0 1-.491-.5Zm-2 2c0-.276.228-.5.51-.5h8.98a.51.51 0 0 1 .51.5c0 .276-.228.5-.51.5h-8.98a.51.51 0 0 1-.51-.5Zm0 2c0-.276.228-.5.51-.5h8.98a.51.51 0 0 1 .51.5c0 .276-.228.5-.51.5h-8.98a.51.51 0 0 1-.51-.5Zm2 2a.5.5 0 0 1 .491-.5h5.018a.5.5 0 0 1 0 1h-5.018a.5.5 0 0 1-.491-.5ZM13 11c0 1 1 1 1 0s1-2 2-2 1-1 0-1c-1.5 0-3 1.5-3 3Z" fill="#000" fill-rule="evenodd"/></svg>
